assets/icons/user-medium-occupancy.svg

<?xml version="1.0" encoding="UTF-8"?>
<svg xmlns="http://www.w3.org/2000/svg" version="1.1" viewBox="0 0 1619 517">
  <defs>
    <style>
      .cls-1 {
        fill: #ddd;
        stroke: #767676;
      }

      .cls-1, .cls-2 {
        stroke-miterlimit: 10;
        stroke-width: 5px;
      }

      .cls-2 {
        fill: #ffd522;
        stroke: #706212;
      }
    </style>
  </defs>
  <!-- Generator: Adobe Illustrator 28.7.1, SVG Export Plug-In . SVG Version: 1.2.0 Build 142)  -->
  <g>
    <g id="Layer_1">
      <path class="cls-2" d="M258.5,290.5c79.5,0,144-64.5,144-144S338,2.5,258.5,2.5,114.5,67,114.5,146.5s64.5,144,144,144ZM386.5,322.5h-55.1c-46.3,21.3-99.5,21.3-145.8,0h-55.1c-70.7,0-128,57.3-128,128v16c0,26.5,21.5,48,48,48h416c26.5,0,48-21.5,48-48v-16c0-70.7-57.3-128-128-128Z"/>
      <path class="cls-2" d="M809.5,290.5c79.5,0,144-64.5,144-144S889,2.5,809.5,2.5s-144,64.5-144,144,64.5,144,144,144ZM937.5,322.5h-55.1c-46.3,21.3-99.5,21.3-145.8,0h-55.1c-70.7,0-128,57.3-128,128v16c0,26.5,21.5,48,48,48h416c26.5,0,48-21.5,48-48v-16c0-70.7-57.3-128-128-128Z"/>
      <path class="cls-1" d="M1360.5,290.5c79.5,0,144-64.5,144-144S1440,2.5,1360.5,2.5s-144,64.5-144,144,64.5,144,144,144ZM1488.5,322.5h-55.1c-46.3,21.3-99.5,21.3-145.8,0h-55.1c-70.7,0-128,57.3-128,128v16c0,26.5,21.5,48,48,48h416c26.5,0,48-21.5,48-48v-16c0-70.7-57.3-128-128-128Z"/>
    </g>
  </g>
</svg>

<svg id="Layer_1" data-name="Layer 1" xmlns="http://www.w3.org/2000/svg" viewBox="0 0 1619 517"><defs><style>.cls-1,.cls-2{fill:#ffd522;}.cls-1{stroke:#517211;}.cls-1,.cls-2,.cls-3{stroke-miterlimit:10;stroke-width:5px;}.cls-2,.cls-3{stroke:#767676;}.cls-3{fill:#ddd;}</style></defs><title>user-medium-occupancy</title><path class="cls-1" d="M258.5,290.5a144,144,0,1,0-144-144A144,144,0,0,0,258.5,290.5Zm128,32H331.4a174.08,174.08,0,0,1-145.8,0H130.5a128,128,0,0,0-128,128v16a48,48,0,0,0,48,48h416a48,48,0,0,0,48-48v-16A128,128,0,0,0,386.5,322.5Z"/><path class="cls-2" d="M809.5,290.5a144,144,0,1,0-144-144A144,144,0,0,0,809.5,290.5Zm128,32H882.4a174.08,174.08,0,0,1-145.8,0H681.5a128,128,0,0,0-128,128v16a48,48,0,0,0,48,48h416a48,48,0,0,0,48-48v-16A128,128,0,0,0,937.5,322.5Z"/><path class="cls-3" d="M1360.5,290.5a144,144,0,1,0-144-144A144,144,0,0,0,1360.5,290.5Zm128,32h-55.1a174.08,174.08,0,0,1-145.8,0h-55.1a128,128,0,0,0-128,128v16a48,48,0,0,0,48,48h416a48,48,0,0,0,48-48v-16A128,128,0,0,0,1488.5,322.5Z"/></svg>
